X: 10754
M: 2/4
L: 1/16
K: C
c2c2e2c2 | G2G2G2 (AB) | c2c2 ecBA | G2G2G2g2 |\
gfef d2g2 | e4 g4 | d2d2 dcde | c2c2c2 H|]


